static/assets/img/icons/theme/electric/fan.svg

<svg height="24" viewBox="0 0 24 24" width="24" xmlns="http://www.w3.org/2000/svg"><g fill="none" fill-rule="evenodd"><path d="m0 0h24v24h-24z" opacity="0"/><g fill="#000"><path d="m23.3743557 18.8971143c-1.2426407 2.1523168-4.9641295 2.330111-8.3121779.3971143-3.3480483-1.9329966-5.0548185-5.2447975-3.8121778-7.3971143 1.2426407-2.15231679 4.9641295-2.33011092 8.3121778-.3971143 3.3480484 1.9329966 5.0548185 5.2447975 3.8121779 7.3971143z" opacity=".3"/><ellipse cx="12.5" cy="9" opacity=".3" rx="4.5" ry="7" transform="matrix(-1 0 0 -1 25 18)"/><path d="m1.25 18.8971143c-1.24264069-2.1523168.46412946-5.4641177 3.81217783-7.3971143 3.34804836-1.93299662 7.06953717-1.75520249 8.31217787.3971143 1.2426406 2.1523168-.4641295 5.4641177-3.81217787 7.3971143-3.34804837 1.9329967-7.06953714 1.7552025-8.31217783-.3971143z" opacity=".3"/></g></g></svg>

<svg width="24px" height="24px" viewBox="0 0 24 24" version="1.1" xmlns="http://www.w3.org/2000/svg" xmlns:xlink="http://www.w3.org/1999/xlink">
    <title>Icon For Fan</title>
    <g stroke="none" stroke-width="1" fill="none" fill-rule="evenodd">
        <polygon opacity="0" points="0 0 24 0 24 24 0 24"></polygon>
        <path d="M23.3743557,18.8971143 C22.131715,21.0494311 18.4102262,21.2272253 15.0621778,19.2942286 C11.7141295,17.361232 10.0073593,14.0494311 11.25,11.8971143 C12.4926407,9.74479751 16.2141295,9.56700338 19.5621778,11.5 C22.9102262,13.4329966 24.6169963,16.7447975 23.3743557,18.8971143 Z" fill="#000000" opacity="0.3"></path>
        <ellipse fill="#000000" opacity="0.3" transform="translate(12.500000, 9.000000) rotate(-180.000000) translate(-12.500000, -9.000000) " cx="12.5" cy="9" rx="4.5" ry="7"></ellipse>
        <path d="M1.25,18.8971143 C0.00735931295,16.7447975 1.71412946,13.4329966 5.06217783,11.5 C8.41022619,9.56700338 12.131715,9.74479751 13.3743557,11.8971143 C14.6169963,14.0494311 12.9102262,17.361232 9.56217783,19.2942286 C6.21412946,21.2272253 2.49264069,21.0494311 1.25,18.8971143 Z" fill="#000000" opacity="0.3"></path>
    </g>
</svg>
